packages/ckeditor5-icons/theme/icons/ai-continue-writing.svg

<svg viewBox="0 0 20 20" xmlns="http://www.w3.org/2000/svg">
<path d="M7.59131 16.502C8.01214 16.502 8.35303 16.8377 8.35303 17.252C8.35275 17.6659 8.01197 18.002 7.59131 18.002H2.51123C2.09053 18.0018 1.74952 17.6651 1.74951 17.251C1.74978 16.8371 2.09069 16.5021 2.51123 16.502H7.59131Z"/>
<path d="M10.8931 7.56055C10.8931 6.55141 12.0278 5.98398 12.8452 6.50391L13.0034 6.62305L17.8198 10.8057C18.3958 11.3061 18.3923 12.1919 17.812 12.6875L12.9956 16.8008C12.1734 17.5026 10.8933 16.9276 10.8931 15.8564V14.4609H2.51123C2.09059 14.4608 1.74963 14.125 1.74951 13.7109C1.74953 13.2968 2.09053 12.9611 2.51123 12.9609H11.147C11.8484 12.9609 12.4175 13.5206 12.4175 14.2109V15.3086L16.5933 11.7412L12.4175 8.11426V9.28125C12.4174 9.97151 11.8483 10.5312 11.147 10.5312H2.51123C2.09059 10.5311 1.74963 10.1953 1.74951 9.78125C1.74968 9.36727 2.09062 9.03139 2.51123 9.03125H10.8931V7.56055Z"/>
<path d="M16.9409 1.87109C17.1447 2.42181 17.5787 2.85676 18.1294 3.06055L19.9985 3.75195L18.1294 4.44336C17.5787 4.64714 17.1447 5.0821 16.9409 5.63281L16.2485 7.50195L15.5571 5.63281C15.3533 5.0821 14.9194 4.64714 14.3687 4.44336L12.4995 3.75195L14.3687 3.06055C14.9194 2.85676 15.3533 2.42181 15.5571 1.87109L16.2485 0.00195312L16.9409 1.87109Z"/>
<path d="M7.59131 5.50195C8.01214 5.50195 8.35303 5.83774 8.35303 6.25195C8.35301 6.66616 8.01214 7.00195 7.59131 7.00195H2.51123C2.09053 7.00181 1.74952 6.66607 1.74951 6.25195C1.74951 5.83783 2.09052 5.5021 2.51123 5.50195H7.59131Z"/>
</svg>

<svg xmlns="http://www.w3.org/2000/svg" viewBox="0 0 20 20"><path d="M7.591 16.502c.421 0 .762.336.762.75s-.341.75-.762.75h-5.08a.757.757 0 0 1-.761-.751c0-.414.34-.749.761-.749zm3.302-8.942c0-1.009 1.135-1.576 1.952-1.056l.158.12 4.817 4.182c.576.5.572 1.386-.008 1.882L12.996 16.8c-.823.702-2.103.127-2.103-.945V14.46H2.511a.756.756 0 0 1-.761-.75c0-.414.34-.75.761-.75h8.636c.701 0 1.27.56 1.27 1.25v1.098l4.176-3.568-4.175-3.627V9.28c0 .69-.57 1.25-1.271 1.25H2.511a.756.756 0 0 1-.761-.75c0-.414.34-.75.761-.75h8.382zm6.047-5.689c.205.55.639.986 1.19 1.19l1.869.691-1.87.691c-.55.204-.984.64-1.188 1.19l-.692 1.869-.692-1.87a2.01 2.01 0 0 0-1.188-1.189l-1.87-.691 1.87-.691c.55-.204.984-.64 1.188-1.19l.691-1.869zM7.591 5.502c.421 0 .762.336.762.75s-.34.75-.762.75h-5.08a.756.756 0 0 1-.761-.75c0-.414.34-.75.761-.75z"/></svg>
